lib/assets/icons/svg/outlined-action-help.svg

<svg xmlns="http://www.w3.org/2000/svg" viewBox="0 0 24 24"><path d="M12.007 21.5C4.694 21.5.123 13.583 3.78 7.25 7.436.917 16.578.917 20.234 7.25A9.497 9.497 0 0 1 21.507 12a9.511 9.511 0 0 1-9.5 9.5zm0-18c-6.543 0-10.633 7.083-7.361 12.75 3.271 5.667 11.451 5.667 14.722 0A8.5 8.5 0 0 0 20.507 12a8.51 8.51 0 0 0-8.5-8.5zm0 11.16a.5.5 0 0 1-.5-.5 3.8 3.8 0 0 1 1.63-3.07c.65-.58 1-.94 1-1.6a2.18 2.18 0 0 0-2.13-2.18 2.19 2.19 0 0 0-2.18 1.94.51.51 0 0 1-.55.45.5.5 0 0 1-.44-.55 3.18 3.18 0 0 1 3.17-2.84 3.18 3.18 0 0 1 3.18 3.18 3.06 3.06 0 0 1-1.36 2.35 2.87 2.87 0 0 0-1.29 2.32.51.51 0 0 1-.53.5zm0 3.03a1.32 1.32 0 1 1 0-2.64 1.32 1.32 0 0 1 0 2.64zm0-1.64a.329.329 0 0 0-.32.32.32.32 0 0 0 .64 0 .329.329 0 0 0-.32-.32z"/></svg>

<svg viewBox="0 0 24 24" xmlns="http://www.w3.org/2000/svg">
  <path  d="M 12.007 21.5 C 4.694 21.5 0.123 13.583 3.78 7.25 C 7.436 0.917 16.578 0.917 20.234 7.25 C 21.068 8.694 21.507 10.332 21.507 12 C 21.501 17.244 17.251 21.494 12.007 21.5 Z M 12.007 3.5 C 5.464 3.5 1.374 10.583 4.646 16.25 C 7.917 21.917 16.097 21.917 19.368 16.25 C 20.114 14.958 20.507 13.492 20.507 12 C 20.501 7.308 16.699 3.506 12.007 3.5 Z M 12.007 14.66 C 11.731 14.66 11.507 14.436 11.507 14.16 C 11.523 12.934 12.13 11.79 13.137 11.09 C 13.787 10.51 14.137 10.15 14.137 9.49 C 14.137 8.305 13.191 7.337 12.007 7.31 C 10.893 7.308 9.954 8.143 9.827 9.25 C 9.796 9.524 9.552 9.723 9.277 9.7 C 9.004 9.669 8.808 9.423 8.837 9.15 C 9.011 7.532 10.379 6.306 12.007 6.31 C 13.763 6.31 15.187 7.734 15.187 9.49 C 15.125 10.443 14.622 11.312 13.827 11.84 C 13.044 12.356 12.562 13.222 12.537 14.16 C 12.532 14.446 12.293 14.671 12.007 14.66 Z M 12.007 17.69 C 10.991 17.69 10.356 16.59 10.864 15.71 C 11.372 14.83 12.642 14.83 13.15 15.71 C 13.266 15.911 13.327 16.138 13.327 16.37 C 13.327 17.099 12.736 17.69 12.007 17.69 Z M 12.007 16.05 C 11.832 16.055 11.692 16.195 11.687 16.37 C 11.687 16.616 11.954 16.77 12.167 16.647 C 12.266 16.59 12.327 16.484 12.327 16.37 C 12.322 16.195 12.182 16.055 12.007 16.05 Z"/>
</svg>
